app/assets/icons/polaris/PackageMajor.svg

<svg viewBox="0 0 20 20" xmlns="http://www.w3.org/2000/svg"><path d="M19 5h-8v-3h5.227c.382-.001.736.162.928.429l1.845 2.571zm-15.227-3h5.227v3h-8l1.845-2.571c.192-.267.546-.43.928-.429zm-2.773 5v10.5a1.5 1.5 0 0 0 1.5 1.5h15a1.5 1.5 0 0 0 1.5-1.5v-10.5h-18zm2 2h6v4h-6v-4z"/></svg>

<svg viewBox="0 0 20 20" xmlns="http://www.w3.org/2000/svg"><path d="M19 5h-8V2h5.227c.382-.001.736.162.928.429L19 5zM3.773 2H9v3H1l1.845-2.571c.192-.267.546-.43.928-.429zM1 7v10.5A1.5 1.5 0 0 0 2.5 19h15a1.5 1.5 0 0 0 1.5-1.5V7H1zm2 2h6v4H3V9z"/></svg>
